src/assets/Images/payme_05.svg

<svg width="1080" height="315" viewBox="0 0 1080 315" version="1.1" xmlns="http://www.w3.org/2000/svg" xmlns:xlink="http://www.w3.org/1999/xlink">
<g id="Canvas" transform="translate(344 -1801)">
<g id="logo_05">
<g id="Shape 1 copy 4">
<use xlink:href="#path0_fill" transform="translate(231.204 1830.77)" fill="#33CCCC"/>
<use xlink:href="#path0_fill" transform="translate(231.204 1830.77)" fill="url(#paint1_linear)"/>
</g>
<g id="Shape 1 copy 4">
<use xlink:href="#path1_fill" transform="translate(264.941 1872.44)" fill="#FFFFFF"/>
</g>
<g id="Shape 1 copy 4">
<use xlink:href="#path2_fill" transform="translate(-344 1801)" fill="#FFFFFF"/>
</g>
</g>
</g>
<defs>
<linearGradient id="paint1_linear" x1="0" y1="0" x2="1" y2="0" gradientUnits="userSpaceOnUse" gradientTransform="matrix(-66.0999 399.226 -838.377 -138.81 671.585 69.405)">
<stop offset="0.47231" stop-color="#00CCCC"/>
<stop offset="1" stop-color="#3399FF"/>
</linearGradient>
<path id="path0_fill" fill-rule="evenodd" d="M 498.722 100.712C 506.372 111.659 507.142 128.912 499.022 142.283C 491.772 154.225 448.382 200.051 434.262 214.777C 422.022 227.568 405.502 240.377 389.242 240.377L 48.788 240.377C 2.77602 240.377 -9.27734e-06 224.777 -9.27734e-06 189.507L -9.27734e-06 46.434C -9.27734e-06 10.412 10.631 -3.66211e-06 42.052 -3.66211e-06L 389.242 -3.66211e-06C 405.502 -3.66211e-06 419.972 8.30001 436.592 25.2C 450.702 39.541 492.852 92.29 498.722 100.712Z"/>
<path id="path1_fill" fill-rule="evenodd" d="M 43.4426 13.6512L 43.4426 12.7092C 43.4426 8.10922 43.0566 3.56222 35.5196 3.56222L 7.06758 3.56222C 0.45458 3.56222 0.0365738 7.21921 0.0365738 12.9012L 0.0365738 50.7122C 13.8866 30.9072 29.2436 21.7052 43.4426 13.6512ZM 234.315 150.277L 234.315 148.247L 234.335 148.247L 234.335 57.2422C 234.335 19.0782 217.558 -0.00178076 184.005 0.00221924C 174.706 -0.0852213 165.566 2.41343 157.605 7.21923C 149.618 12.0332 141.944 18.7576 134.583 27.3922C 130.965 18.0089 125.509 11.0982 118.215 6.66021C 110.92 2.22221 101.468 0.00288591 89.8596 0.00221924C 76.4236 0.00221924 60.8026 4.70922 49.7306 13.8172C 47.2536 16.2982 0.0305924 53.4672 0.0305924 91.6412L 0.0305924 149.904C 0.0305924 151.757 -0.863375 158.787 7.01362 158.787L 36.6346 158.787C 45.8426 158.787 44.9436 152.757 44.9436 150.277L 44.9436 56.0452C 49.9436 49.4132 60.1596 33.0342 76.7526 33.0342C 83.1212 33.0342 87.7076 35.1895 90.5116 39.5002C 93.3156 43.8109 94.7236 51.0386 94.7356 61.1832L 94.7356 134.783L 94.7006 134.783L 94.7006 149.906C 94.7006 151.759 93.8066 158.789 101.681 158.789L 130.924 158.789C 140.138 158.789 139.239 152.759 139.239 150.279L 139.239 148.249L 139.273 148.249L 139.273 56.0492C 144.63 49.4172 155.304 33.0382 171.073 33.0382C 177.561 33.0382 182.24 35.1936 185.111 39.5042C 187.981 43.8149 189.415 51.0426 189.411 61.1872L 189.411 134.787L 189.381 134.787L 189.381 149.91C 189.381 151.763 188.491 158.793 196.371 158.793L 226.001 158.793C 235.215 158.789 234.315 152.757 234.315 150.277ZM 397.445 113.277C 386.915 141.612 361.685 157.447 330.425 157.447C 285.145 157.447 255.235 126.592 255.235 80.3152C 255.235 34.5962 286.285 1.45721 329.015 1.45721C 371.285 1.45721 399.635 30.8952 401.435 78.3152C 401.665 84.3742 399.895 89.7272 392.325 89.7272L 296.245 89.7272C 296.815 115.155 309.075 128.871 330.715 128.871C 343.915 128.871 351.735 123.18 358.545 112.027C 361.505 107.174 367.575 107.444 367.575 107.444L 392.325 107.444C 396.365 107.441 398.155 111.389 397.445 113.274L 397.445 113.277ZM 329.015 30.8772C 311.055 30.8772 298.525 43.4462 296.245 64.0272L 360.625 64.0272C 358.915 46.0252 349.225 30.8772 329.015 30.8772L 329.015 30.8772Z"/>
<path id="path2_fill" fill-rule="evenodd" d="M 176.842 31.0816C 173.036 25.0167 168.099 19.7408 162.3 15.5416C 156.501 11.4673 150.133 8.27274 143.4 6.0616C 135.922 3.62582 128.198 2.02114 120.369 1.2766C 111.412 0.395791 102.417 -0.029751 93.4177 0.00160738L 14.5477 0.00160738C 7.45567 0.00160738 0.0216698 4.65962 0.0216698 13.4436L 0.0216698 141.334C 10.0127 162.649 29.4747 185.278 51.6017 196.093L 51.6017 170.729C 51.6017 157.345 61.6807 154.355 65.8497 154.355L 89.1697 154.355C 121.292 154.355 145.809 147.609 162.721 134.118C 179.633 120.646 188.088 100.635 188.088 74.0846C 188.136 66.413 187.246 58.7643 185.439 51.3086C 183.642 44.1603 180.741 37.336 176.842 31.0816ZM 130.882 96.7626C 128.159 101.489 124.097 105.303 119.21 107.725C 113.913 110.252 108.191 111.768 102.338 112.195C 95.9637 112.763 89.3813 113.048 82.5907 113.049L 60.4297 113.049C 55.0087 113.049 51.6017 108.636 51.6017 102.126L 51.6017 49.8386C 51.6017 43.9746 55.4247 41.5146 60.0087 41.5146L 82.5907 41.5146C 89.9467 41.5146 96.845 41.7269 103.286 42.1516C 109.083 42.416 114.776 43.7905 120.056 46.2006C 124.762 48.4408 128.657 52.0861 131.204 56.6336C 133.888 61.3103 135.23 67.9103 135.232 76.4336C 135.232 85.0876 133.782 91.864 130.882 96.7626L 130.882 96.7626ZM 51.6017 204.358C 27.2657 194.634 10.9507 183.034 0.0216698 171.534L 0.0216698 233.274C 0.0216698 233.274 -0.878337 243.343 8.92166 243.343L 43.3307 243.343C 52.7697 243.343 51.6057 233.274 51.6057 233.274L 51.6057 204.358L 51.6017 204.358ZM 539.245 67.2806L 508.364 67.2806C 502.088 67.2806 497.953 69.9186 495.464 76.8206C 492.975 83.7226 460.243 174.885 460.243 174.885C 460.243 174.885 428.932 85.6056 426.468 78.6926C 424.004 71.7796 419.958 67.2806 412.668 67.2806L 384.293 67.2806C 374.283 67.2806 374.283 75.1436 375.524 78.2616C 376.531 80.7816 415.389 187.288 430.189 227.862C 433.679 237.442 435.057 240.324 435.165 243.873C 435.273 247.422 431.665 254.873 429.172 259.149C 428.027 261.1 426.712 262.947 425.243 264.669C 454.257 255.982 487.698 224.46 504.991 190.311C 522.091 142.72 544.641 79.8526 545.619 76.6366C 547.192 71.4276 547.176 67.2806 539.245 67.2806ZM 402.886 273.725C 400.205 273.678 397.529 273.485 394.87 273.146C 391.615 272.715 385.524 273.323 385.524 278.657L 385.524 302.501C 385.524 311.601 389.875 312.208 392.27 312.747C 399.476 314.249 406.825 314.959 414.186 314.865C 423.942 314.865 432.43 313.09 439.652 309.541C 446.944 305.932 453.442 300.902 458.763 294.746C 464.63 287.892 469.588 280.309 473.514 272.186C 477.825 263.458 481.963 253.843 485.929 243.341C 485.929 243.341 487.629 238.595 490.429 230.82C 481.911 239.419 441.763 277.49 402.886 273.725ZM 356.511 95.5856C 354.835 91.6004 352.546 87.9019 349.727 84.6246C 346.918 81.4786 343.703 78.721 340.166 76.4246C 336.349 73.9431 332.3 71.8395 328.076 70.1436C 323.762 68.4591 319.326 67.1084 314.806 66.1036C 309.667 64.9782 304.453 64.2312 299.206 63.8686C 293.539 63.4466 287.169 63.2339 280.096 63.2306C 233.314 63.2306 206.676 78.0163 200.181 107.588C 198.069 116.764 207.146 117.303 207.146 117.303L 235.925 117.303C 243.438 117.303 243.115 114.882 246.761 108.088C 248.074 104.391 250.437 101.157 253.561 98.7826C 259.084 94.5279 267.362 92.4003 278.396 92.3996C 289.012 92.3996 296.724 94.4553 301.534 98.5666C 306.343 102.678 309.173 108.923 310.025 117.303C 310.025 127.02 306.994 133.503 295.248 133.503C 266.611 132.463 235.838 135.703 218.506 145.64C 201.174 155.577 191.376 175.004 191.376 195.867C 191.376 204.377 192.897 211.828 195.941 218.221C 198.89 224.488 203.25 229.989 208.679 234.291C 214.44 238.784 221.043 242.078 228.098 243.978C 236.117 246.177 244.402 247.254 252.717 247.178C 265.172 247.178 276.176 245.616 285.729 242.492C 295.28 239.374 310.06 229.092 311.942 227.592L 311.942 233.073C 311.942 238.504 313.595 243.348 320.076 243.348L 353.542 243.348C 360.316 243.348 361.822 238.504 361.822 232.543L 361.822 129.442C 361.881 123.033 361.456 116.629 360.551 110.284C 359.833 105.233 358.475 100.294 356.511 95.5856L 356.511 95.5856ZM 310.876 196.672C 310.876 196.672 302.234 214.623 271.392 214.623C 262.906 214.623 256.008 212.708 250.697 208.878C 245.385 205.048 242.731 199.086 242.735 190.994C 242.735 180.484 247.052 173.065 255.688 168.738C 264.315 164.414 281.588 161.944 294.531 162.247C 307.474 162.55 310.876 170.729 310.876 176.376L 310.876 196.676L 310.876 196.672Z"/>
</defs>
</svg>

<svg xmlns="http://www.w3.org/2000/svg" xmlns:xlink="http://www.w3.org/1999/xlink" width="1080" height="315"><g transform="translate(575.204 29.77)"><use xlink:href="#a" fill="#3CC"/><use xlink:href="#a" fill="url(#b)"/></g><use xlink:href="#c" fill="#FFF" transform="translate(608.941 71.44)"/><use xlink:href="#d" fill="#FFF"/><defs><path id="a" fill-rule="evenodd" d="M498.722 100.712c7.65 10.947 8.42 28.2.3 41.571-7.25 11.942-50.64 57.768-64.76 72.494-12.24 12.791-28.76 25.6-45.02 25.6H48.788C2.776 240.377 0 224.777 0 189.507V46.434C0 10.412 10.631 0 42.052 0h347.19c16.26 0 30.73 8.3 47.35 25.2 14.11 14.341 56.26 67.09 62.13 75.512Z"/><path id="c" fill-rule="evenodd" d="M43.443 13.651v-.942c0-4.6-.386-9.147-7.923-9.147H7.068C.455 3.562.037 7.22.037 12.902v37.81c13.85-19.805 29.207-29.007 43.406-37.06Zm190.872 136.626v-2.03h.02V57.242c0-38.164-16.777-57.244-50.33-57.24a50.17 50.17 0 0 0-26.4 7.217c-7.987 4.814-15.661 11.539-23.022 20.173-3.618-9.383-9.074-16.294-16.368-20.732C110.92 2.222 101.468.003 89.86.002c-13.436 0-29.057 4.707-40.13 13.815C47.255 16.298.03 53.467.03 91.641v58.263c0 1.853-.893 8.883 6.984 8.883h29.62c9.209 0 8.31-6.03 8.31-8.51V56.045c5-6.632 15.216-23.01 31.809-23.01 6.368 0 10.955 2.155 13.759 6.465 2.804 4.31 4.212 11.539 4.224 21.683v73.6H94.7v15.123c0 1.853-.894 8.883 6.98 8.883h29.243c9.214 0 8.315-6.03 8.315-8.51v-2.03h.034v-92.2c5.357-6.632 16.031-23.01 31.8-23.01 6.488 0 11.167 2.155 14.038 6.465 2.87 4.31 4.304 11.539 4.3 21.683v73.6h-.03v15.123c0 1.853-.89 8.883 6.99 8.883h29.63c9.214-.004 8.314-6.036 8.314-8.516Zm163.13-37c-10.53 28.335-35.76 44.17-67.02 44.17-45.28 0-75.19-30.855-75.19-77.132 0-45.719 31.05-78.858 73.78-78.858 42.27 0 70.62 29.438 72.42 76.858.23 6.06-1.54 11.412-9.11 11.412h-96.08c.57 25.428 12.83 39.144 34.47 39.144 13.2 0 21.02-5.691 27.83-16.844 2.96-4.853 9.03-4.583 9.03-4.583h24.75c4.04-.003 5.83 3.945 5.12 5.83v.003Zm-68.43-82.4c-17.96 0-30.49 12.57-32.77 33.15h64.38c-1.71-18.002-11.4-33.15-31.61-33.15Z"/><path id="d" fill-rule="evenodd" d="M176.842 31.082a55.819 55.819 0 0 0-14.542-15.54 71.895 71.895 0 0 0-18.9-9.48 107.105 107.105 0 0 0-23.031-4.785A265.918 265.918 0 0 0 93.418.002h-78.87C7.456.002.022 4.66.022 13.444v127.89c9.99 21.315 29.453 43.944 51.58 54.759v-25.364c0-13.384 10.079-16.374 14.248-16.374h23.32c32.122 0 56.639-6.746 73.551-20.237 16.912-13.472 25.367-33.483 25.367-60.033a94.193 94.193 0 0 0-2.649-22.776 70.919 70.919 0 0 0-8.597-20.227Zm-45.96 65.68a27.63 27.63 0 0 1-11.672 10.963 47.153 47.153 0 0 1-16.872 4.47 222.88 222.88 0 0 1-19.747.854H60.43c-5.421 0-8.828-4.413-8.828-10.923V49.839c0-5.864 3.823-8.324 8.407-8.324H82.59c7.356 0 14.254.212 20.695.637a45.364 45.364 0 0 1 16.77 4.049 25.185 25.185 0 0 1 11.148 10.433c2.684 4.676 4.026 11.276 4.028 19.8 0 8.654-1.45 15.43-4.35 20.329Zm-79.28 107.596c-24.336-9.724-40.651-21.324-51.58-32.824v61.74s-.9 10.069 8.9 10.069H43.33c9.439 0 8.275-10.069 8.275-10.069v-28.916h-.004ZM539.245 67.281h-30.881c-6.276 0-10.411 2.638-12.9 9.54-2.489 6.902-35.221 98.064-35.221 98.064s-31.311-89.28-33.775-96.192c-2.464-6.913-6.51-11.412-13.8-11.412h-28.375c-10.01 0-10.01 7.863-8.769 10.98 1.007 2.52 39.865 109.027 54.665 149.601 3.49 9.58 4.868 12.462 4.976 16.011.108 3.549-3.5 11-5.993 15.276a38.643 38.643 0 0 1-3.929 5.52c29.014-8.687 62.455-40.209 79.748-74.358 17.1-47.591 39.65-110.458 40.628-113.674 1.573-5.21 1.557-9.356-6.374-9.356ZM402.886 273.725a73.581 73.581 0 0 1-8.016-.579c-3.255-.431-9.346.177-9.346 5.511v23.844c0 9.1 4.351 9.707 6.746 10.246a101.079 101.079 0 0 0 21.916 2.118c9.756 0 18.244-1.775 25.466-5.324a61.061 61.061 0 0 0 19.111-14.795 104.868 104.868 0 0 0 14.751-22.56c4.311-8.728 8.449-18.343 12.415-28.845 0 0 1.7-4.746 4.5-12.521-8.518 8.599-48.666 46.67-87.543 42.905Zm-46.375-178.14a41.45 41.45 0 0 0-6.784-10.96 47.477 47.477 0 0 0-9.561-8.2 70.097 70.097 0 0 0-12.09-6.281 90.44 90.44 0 0 0-13.27-4.04 107.6 107.6 0 0 0-15.6-2.235c-5.667-.422-12.037-.635-19.11-.638-46.782 0-73.42 14.785-79.915 44.357-2.112 9.176 6.965 9.715 6.965 9.715h28.779c7.513 0 7.19-2.421 10.836-9.215a20.165 20.165 0 0 1 6.8-9.305c5.523-4.255 13.801-6.383 24.835-6.383 10.616 0 18.328 2.055 23.138 6.167 4.809 4.111 7.639 10.356 8.491 18.736 0 9.717-3.031 16.2-14.777 16.2-28.637-1.04-59.41 2.2-76.742 12.137-17.332 9.937-27.13 29.364-27.13 50.227 0 8.51 1.521 15.961 4.565 22.354a44.892 44.892 0 0 0 12.738 16.07 54.712 54.712 0 0 0 19.419 9.687 89.98 89.98 0 0 0 24.619 3.2c12.455 0 23.459-1.562 33.012-4.686 9.551-3.118 24.331-13.4 26.213-14.9v5.481c0 5.431 1.653 10.275 8.134 10.275h33.466c6.774 0 8.28-4.844 8.28-10.805V129.442a127.372 127.372 0 0 0-1.271-19.158 60.18 60.18 0 0 0-4.04-14.698Zm-45.635 101.087s-8.642 17.951-39.484 17.951c-8.486 0-15.384-1.915-20.695-5.745-5.312-3.83-7.966-9.792-7.962-17.884 0-10.51 4.317-17.929 12.953-22.256 8.627-4.324 25.9-6.794 38.843-6.491 12.943.303 16.345 8.482 16.345 14.129v20.3-.004Z"/><linearGradient id="b" x1="0" x2="1" y1="0" y2="0" gradientTransform="matrix(-66.0999 399.226 -838.377 -138.81 671.585 69.405)" gradientUnits="userSpaceOnUse"><stop offset=".472" stop-color="#0CC"/><stop offset="1" stop-color="#39F"/></linearGradient></defs></svg>
